public/assets/img/portfolio/logo-jamjunction.svg

<?xml version="1.0" encoding="UTF-8"?>
<svg id="Layer_1" xmlns="http://www.w3.org/2000/svg" version="1.1" viewBox="0 0 88 16.6">
  <!-- Generator: Adobe Illustrator 29.6.1, SVG Export Plug-In . SVG Version: 2.1.1 Build 9)  -->
  <defs>
    <style>
      .st0 {
        fill-opacity: 1;
      }

      .st0, .st1, .st2 {
        fill: #a0adc0;
      }

      .st1 {
        font-family: ClashDisplay-Semibold, 'Clash Display';
        font-weight: 600;
      }

      .st1, .st2 {
        font-size: 13.7px;
        isolation: isolate;
      }

      .st2 {
        font-family: ClashDisplay-Regular, 'Clash Display';
      }
    </style>
  </defs>
  <g>
    <path class="st0" d="M15,9.9c-1.2-1.2-3.2-1.2-4.4,0l-.7.7c-1.2,1.2-1.2,3.2,0,4.4l.7.7c1.2,1.2,3.2,1.2,4.4,0l.7-.7c1.2-1.2,1.2-3.2,0-4.4l-.7-.7Z"/>
    <path class="st0" d="M1.6,6.8c1.2,1.2,3.2,1.2,4.4,0l.7-.7c1.3-1.3,1.3-3.2,0-4.4l-.7-.7C4.8-.3,2.8-.3,1.6,1l-.7.7C-.3,2.9-.3,4.9.9,6.1l.7.7Z"/>
    <path class="st0" d="M13,7.5c.2,0,.4,0,.6,0h0c.6-.2,1.2-.5,1.6-.9,1.4-1.4,1.4-3.7,0-5.1C13.8,0,11.5,0,10.1,1.4c-.5.5-.8,1-.9,1.6h0c0,.2,0,.4,0,.6-.6,2.8-2.8,5-5.6,5.6-.9.1-1.7.4-2.3,1.1C-.1,11.7-.1,14,1.3,15.4c1.4,1.4,3.7,1.4,5.1,0s.8-1,.9-1.6h0c0-.2,0-.4,0-.6.6-2.9,2.8-5.1,5.6-5.7Z"/>
  </g>
  <g id="Group_4">
    <g id="HORIZON">
      <g>
        <text class="st1" transform="translate(22.3 13.1)"><tspan x="0" y="0">HORI</tspan></text>
        <text class="st2" transform="translate(55.5 13.1)"><tspan x="0" y="0">ZON</tspan></text>
      </g>
    </g>
  </g>
</svg>

<?xml version="1.0" encoding="utf-8"?>
<!-- Generator: Adobe Illustrator 26.3.1, SVG Export Plug-In . SVG Version: 6.00 Build 0)  -->
<svg version="1.1" id="Layer_1" xmlns="http://www.w3.org/2000/svg" xmlns:xlink="http://www.w3.org/1999/xlink" x="0px" y="0px"
	 viewBox="0 0 88 16.6" style="enable-background:new 0 0 88 16.6;" xml:space="preserve">
<style type="text/css">
	.st0{fill:#A0ADC0;fill-opacity:0.98;}
</style>
<g>
	<path class="st0" d="M15,9.9c-1.2-1.2-3.2-1.2-4.4,0l-0.7,0.7c-1.2,1.2-1.2,3.2,0,4.4l0.7,0.7c1.2,1.2,3.2,1.2,4.4,0l0.7-0.7
		c1.2-1.2,1.2-3.2,0-4.4L15,9.9z"/>
	<path class="st0" d="M1.6,6.8C2.8,8,4.8,8,6,6.8l0.7-0.7C8,4.8,8,2.9,6.7,1.7L6,1C4.8-0.3,2.8-0.3,1.6,1L0.9,1.7
		c-1.2,1.2-1.2,3.2,0,4.4L1.6,6.8z"/>
	<path class="st0" d="M13,7.5c0.2,0,0.4,0,0.6-0.1c0,0,0,0,0,0l0,0c0.6-0.2,1.2-0.5,1.6-0.9c1.4-1.4,1.4-3.7,0-5.1
		c-1.4-1.4-3.7-1.4-5.1,0c-0.5,0.5-0.8,1-0.9,1.6l0,0c0,0,0,0,0,0C9.2,3.2,9.2,3.4,9.2,3.6c-0.6,2.8-2.8,5-5.6,5.6
		c-0.9,0.1-1.7,0.4-2.3,1.1c-1.4,1.4-1.4,3.7,0,5.1c1.4,1.4,3.7,1.4,5.1,0c0.5-0.5,0.8-1,0.9-1.6l0,0c0,0,0,0,0,0
		c0.1-0.2,0.1-0.4,0.1-0.6C8,10.3,10.2,8.1,13,7.5z"/>
	<path class="st0" d="M73.3,5.6c0.2,0,0.4-0.1,0.5-0.2C74,5.2,74,5.1,74,4.8c0-0.2-0.1-0.4-0.2-0.5c-0.1-0.1-0.3-0.2-0.5-0.2
		s-0.4,0.1-0.5,0.2c-0.1,0.1-0.2,0.3-0.2,0.5c0,0.2,0.1,0.4,0.2,0.5C72.9,5.5,73.1,5.6,73.3,5.6z"/>
	<path class="st0" d="M25.8,10c0,0.6-0.3,0.9-0.9,0.9c-0.6,0-0.9-0.4-0.9-1.1V9.1h-1.7v0.7c0,0.8,0.2,1.4,0.7,1.8
		c0.5,0.4,1.1,0.6,1.9,0.6c0.8,0,1.4-0.2,1.9-0.5c0.5-0.4,0.8-1,0.8-1.8V4.1h-1.7V10z"/>
	<path class="st0" d="M46,5.6c0.2,0,0.4-0.1,0.5-0.2c0.1-0.1,0.2-0.3,0.2-0.5c0-0.2-0.1-0.4-0.2-0.5c-0.1-0.1-0.3-0.2-0.5-0.2
		s-0.4,0.1-0.5,0.2c-0.1,0.1-0.2,0.3-0.2,0.5c0,0.2,0.1,0.4,0.2,0.5C45.6,5.5,45.8,5.6,46,5.6z"/>
	<path class="st0" d="M33.8,11.3V7.9c0-0.6-0.2-1.1-0.5-1.4c-0.4-0.3-1-0.5-1.9-0.5c-1.6,0-2.5,0.7-2.6,2.1h1.5
		c0-0.3,0.1-0.5,0.3-0.6c0.2-0.1,0.4-0.2,0.8-0.2c0.6,0,0.9,0.2,0.9,0.6l0,0.4L31,8.6c-0.8,0.1-1.3,0.3-1.5,0.4
		c-0.6,0.3-0.9,0.9-0.9,1.6c0,0.5,0.1,0.9,0.4,1.2c0.4,0.4,0.8,0.5,1.4,0.5c0.8,0,1.4-0.2,1.8-0.7c0,0.3,0.1,0.5,0.2,0.6h1.7v-0.4
		C33.9,11.7,33.8,11.6,33.8,11.3z M32.3,9.8c0,0.9-0.4,1.3-1.3,1.3c-0.6,0-0.8-0.2-0.8-0.6c0-0.2,0.1-0.4,0.2-0.5
		c0.2-0.1,0.4-0.3,0.7-0.3l1.2-0.3L32.3,9.8z"/>
	<path class="st0" d="M58.6,6.1c-0.8,0-1.4,0.3-1.8,1V6.2h-1.6v6h1.6V8.6c0-0.4,0.1-0.6,0.3-0.9c0.2-0.2,0.5-0.3,0.9-0.3
		c0.7,0,1,0.4,1,1.1v3.8h1.6V8.2c0-0.6-0.2-1.1-0.5-1.5C59.8,6.3,59.2,6.1,58.6,6.1z"/>
	<path class="st0" d="M78.3,6.1c-0.9,0-1.6,0.2-2.1,0.7c-0.6,0.6-0.9,1.4-0.9,2.4c0,0.9,0.2,1.6,0.7,2.2c0.5,0.6,1.3,0.9,2.3,0.9
		c0.9,0,1.6-0.2,2.1-0.7c0.6-0.6,0.9-1.4,0.9-2.4c0-0.9-0.2-1.6-0.7-2.2C80.1,6.4,79.3,6.1,78.3,6.1z M79.3,10.6
		c-0.3,0.3-0.6,0.5-1,0.5c-0.4,0-0.7-0.1-1-0.4c-0.3-0.3-0.4-0.8-0.4-1.4c0-0.6,0.1-1,0.4-1.4c0.3-0.3,0.6-0.5,1-0.5
		c0.4,0,0.7,0.2,1,0.5c0.3,0.3,0.4,0.8,0.4,1.4C79.7,9.8,79.6,10.2,79.3,10.6z"/>
	<path class="st0" d="M41.8,6.1c-0.7,0-1.3,0.3-1.8,0.9c-0.3-0.6-0.9-0.9-1.6-0.9c-0.6,0-1.2,0.3-1.7,0.9V6.2h-1.6v6h1.6V8.6
		c0-0.4,0.1-0.7,0.3-0.9c0.2-0.2,0.5-0.3,0.8-0.3c0.6,0,0.8,0.3,0.8,0.8v4h1.6V8.6c0-0.4,0.1-0.7,0.3-0.9c0.2-0.2,0.5-0.3,0.8-0.3
		c0.6,0,0.9,0.3,0.9,0.8v4h1.6V7.9c0-0.6-0.2-1-0.5-1.4C42.9,6.2,42.4,6.1,41.8,6.1z"/>
	<path class="st0" d="M71.3,11c-0.3,0.1-0.5,0.2-0.7,0.2c-0.2,0-0.4,0-0.4-0.1C70.1,11,70,10.8,70,10.6V7.2h1.1v-1H70V4.3l-1.6,0.9
		v1h-0.8v1h0.8v3.7c0,0.9,0.5,1.4,1.5,1.4c0.5,0,1-0.1,1.5-0.4L71.3,11C71.3,10.9,71.3,10.9,71.3,11z"/>
	<path class="st0" d="M87.4,6.7c-0.4-0.4-0.9-0.6-1.6-0.6c-0.8,0-1.4,0.3-1.8,1V6.2h-1.6v6H84V8.6c0-0.4,0.1-0.6,0.3-0.9
		c0.2-0.2,0.5-0.3,0.9-0.3c0.7,0,1,0.4,1,1.1v3.8h1.6V8.2C87.8,7.5,87.7,7,87.4,6.7z"/>
	<rect x="72.5" y="6.2" class="st0" width="1.6" height="6"/>
	<path class="st0" d="M45.3,12.9c0,0.3-0.2,0.5-0.5,0.5c-0.1,0-0.2,0-0.3,0v1.3c0.3,0,0.7,0.1,0.9,0.1c0.5,0,0.8-0.1,1.1-0.3
		c0.2-0.2,0.3-0.6,0.3-1.1V6.2h-1.6V12.9z"/>
	<path class="st0" d="M64.5,7.3c0.3,0,0.6,0.1,0.7,0.2c0.2,0.2,0.3,0.4,0.4,0.8h1.5c-0.1-0.7-0.3-1.2-0.7-1.6
		c-0.5-0.5-1.1-0.7-1.9-0.7c-0.8,0-1.5,0.2-2,0.7c-0.6,0.6-0.9,1.4-0.9,2.5c0,0.9,0.2,1.6,0.6,2.2c0.5,0.6,1.2,0.9,2.2,0.9
		c0.7,0,1.3-0.2,1.7-0.6c0.5-0.4,0.8-1,0.9-1.8h-1.5c-0.1,0.4-0.2,0.7-0.4,0.8c-0.2,0.2-0.4,0.2-0.7,0.2c-0.4,0-0.7-0.2-0.9-0.5
		c-0.2-0.3-0.3-0.8-0.3-1.4c0-0.6,0.1-1,0.3-1.4C63.7,7.5,64.1,7.3,64.5,7.3z"/>
	<path class="st0" d="M52.1,9.8c0,0.4-0.1,0.7-0.4,0.9c-0.2,0.2-0.5,0.3-0.9,0.3c-0.7,0-1-0.4-1-1.1V6.2h-1.6v4.1
		c0,0.6,0.2,1.1,0.5,1.5c0.4,0.4,0.9,0.6,1.6,0.6c0.8,0,1.4-0.3,1.8-1v0.9h1.6v-6h-1.6V9.8z"/>
</g>
</svg>
